svgs/sky.svg

<svg xmlns="http://www.w3.org/2000/svg" viewBox="0 0 192 192"><path d="M75.44 16c-3.142 0-5.381 2.61-5.381 9.027v113.069c0 2.516.999 3.587 2.263 3.587h7.888c3.154 0 5.385-2.622 5.385-9.042V19.587c0-2.529-1.006-3.587-2.262-3.587ZM34.325 54.548C22.308 54.548 16 66.166 16 80.976c0 13.164 4.856 21.181 14.553 24.789l15.48 5.777c3.147 1.182 4.125 2.66 4.125 5.337 0 2.055-.979 3.697-3.819 3.697H22.336c-3.848 0-5.395 3.721-5.395 8.956v8.368c0 2.096.622 3.783 2.13 3.783h26.332c14.221 0 19.962-11.637 19.962-25.385 0-14.221-4.925-22.232-14.558-25.832l-15.484-5.793c-3.147-1.173-4.121-2.652-4.121-5.337 0-2.047.976-3.681 3.82-3.681h23.033c3.838 0 5.391-3.733 5.391-8.98v-8.344c0-2.1-.625-3.783-2.131-3.783Zm77.366 0c-2.371 0-3.635 1.058-5.051 3.587L86.546 94.14l18.024 43.83c1.042 2.529 1.911 3.713 3.486 3.713h10.738c1.607 0 2.54-1.071 2.54-3.328 0-1.384-.403-2.283-.936-3.556L104.57 95.702 116.588 74.1l23.725 58.541-10.489 37.001c-.289 1.087-.626 2.137-.626 3.187 0 2.137.94 3.171 2.221 3.171h9.515c1.94 0 2.777-1.118 3.495-3.721l30.941-111.35c.306-1.095.63-2.132.63-3.194 0-2.134-.93-3.187-2.215-3.187h-9.591c-1.92 0-2.792 1.129-3.49 3.736l-13.533 50.134-18.876-49.616c-1.165-3.076-2.394-4.254-5.192-4.254Z" fill="#222"/></svg>

<svg
    xmlns="http://www.w3.org/2000/svg"
    viewBox="0 0 192 192"
    id="vector">
    <path
        id="path"
        d="M 75.44 16 C 72.298 16 70.059 18.61 70.059 25.027 L 70.059 138.096 C 70.059 140.612 71.058 141.683 72.322 141.683 L 80.21 141.683 C 83.364 141.683 85.595 139.061 85.595 132.641 L 85.595 19.587 C 85.595 17.058 84.589 16 83.333 16 Z M 34.325 54.548 C 22.308 54.548 16 66.166 16 80.976 C 16 94.14 20.856 102.157 30.553 105.765 L 46.033 111.542 C 49.18 112.724 50.158 114.202 50.158 116.879 C 50.158 118.934 49.179 120.576 46.339 120.576 L 22.336 120.576 C 18.488 120.576 16.941 124.297 16.941 129.532 L 16.941 137.9 C 16.941 139.996 17.563 141.683 19.071 141.683 L 45.403 141.683 C 59.624 141.683 65.365 130.046 65.365 116.298 C 65.365 102.077 60.44 94.066 50.807 90.466 L 35.323 84.673 C 32.176 83.5 31.202 82.021 31.202 79.336 C 31.202 77.289 32.178 75.655 35.022 75.655 L 58.055 75.655 C 61.893 75.655 63.446 71.922 63.446 66.675 L 63.446 58.331 C 63.446 56.231 62.821 54.548 61.315 54.548 Z M 111.691 54.548 C 109.32 54.548 108.056 55.606 106.64 58.135 L 86.546 94.14 L 104.57 137.97 C 105.612 140.499 106.481 141.683 108.056 141.683 L 118.794 141.683 C 120.401 141.683 121.334 140.612 121.334 138.355 C 121.334 136.971 120.931 136.072 120.398 134.799 L 104.57 95.702 L 116.588 74.1 L 140.313 132.641 L 129.824 169.642 C 129.535 170.729 129.198 171.779 129.198 172.829 C 129.198 174.966 130.138 176 131.419 176 L 140.934 176 C 142.874 176 143.711 174.882 144.429 172.279 L 175.37 60.929 C 175.676 59.834 176 58.797 176 57.735 C 176 55.601 175.07 54.548 173.785 54.548 L 164.194 54.548 C 162.274 54.548 161.402 55.677 160.704 58.284 L 147.171 108.418 L 128.295 58.802 C 127.13 55.726 125.901 54.548 123.103 54.548 Z"
        fill="#222222"
        stroke-width="12"/>
</svg>
